assets/svg/1F614.svg

<svg xmlns="http://www.w3.org/2000/svg" viewBox="0 0 64 64" enable-background="new 0 0 64 64"><path fill="#fbb041" d="m64.13 31.839c0 17.664-14.315 31.981-31.979 31.981-17.665 0-31.98-14.317-31.98-31.981 0-17.663 14.315-31.979 31.979-31.979 17.664-.0001 31.98 14.316 31.98 31.979"/><g opacity=".987"><path fill="#e79d3c" d="m15.389 41.09c-5.668-12.159-5.921-25.24-.798-36.06-8.682 5.716-14.421 15.54-14.421 26.714 0 17.665 14.315 31.979 31.979 31.979.316 0 .622-.039.936-.047-7.331-6.17-13.509-13.596-17.696-22.582"/></g><g fill="#633d19"><path d="m21.733 19.278c-3.918 4.179-8.319 7.386-13.604 9.626-1.205.512-.273 2.307.92 1.801 5.439-2.305 10-5.621 14.04-9.922.887-.945-.46-2.453-1.351-1.505"/><path d="m8.631 31.554l0 0c-.845 0-1.612-.648-1.786-1.507-.162-.796.226-1.519.988-1.841 5.01-2.123 9.377-5.214 13.347-9.446.827-.881 2.314-.531 2.796.581.292.675.162 1.426-.34 1.961-4.234 4.517-8.907 7.819-14.291 10.1-.232.098-.473.149-.714.149m13.738-11.818c-4.201 4.452-8.734 7.659-13.944 9.867-.083.352.111.498.328.405 5.186-2.198 9.691-5.386 13.777-9.743.04-.043.132-.142.056-.32-.059-.136-.173-.209-.217-.209"/><path d="m41.566 19.278c3.918 4.179 8.318 7.386 13.604 9.626 1.205.512.272 2.307-.921 1.801-5.438-2.305-10-5.621-14.03-9.922-.887-.945.46-2.453 1.351-1.505"/><path d="m54.668 31.554c-.241 0-.481-.051-.715-.15-5.384-2.283-10.06-5.585-14.291-10.1-.502-.535-.632-1.286-.34-1.961.482-1.112 1.967-1.463 2.797-.581 3.97 4.232 8.334 7.323 13.347 9.446.763.322 1.149 1.045.987 1.841-.174.86-.939 1.508-1.785 1.508m-13.746-11.779c-.089 0-.166.067-.209.17-.077.178.016.276.056.32 4.086 4.357 8.591 7.544 13.777 9.743l.122.03c.143 0 .272-.154.301-.292-5.306-2.35-9.838-5.558-13.956-9.948-.032-.015-.061-.023-.091-.023"/><path d="m54.01 36.686c-.235 0-4.527 1.395-8.86 1.395-3.869 0-7.775-1.395-8.857-1.395-.942 0-1.292.92-.723 1.473 5.182 5.057 13.977 5.057 19.16 0 .564-.554.214-1.473-.723-1.473"/><path d="m28.01 36.686c-.235 0-4.527 1.395-8.86 1.395-3.869 0-7.776-1.395-8.858-1.395-.942 0-1.292.92-.723 1.473 5.183 5.057 13.977 5.057 19.16 0 .564-.554.215-1.473-.723-1.473"/></g><path fill="#633c17" d="m39.23 54.65c0 1.115-.904 2.02-2.02 2.02h-10.113c-1.118 0-2.02-.906-2.02-2.02l0 0c0-1.118.904-2.02 2.02-2.02h10.112c1.118 0 2.023.904 2.023 2.02l0 0"/></svg>

<?xml version="1.0" encoding="UTF-8" standalone="no"?>
<!-- Generator: Adobe Illustrator 16.0.0, SVG Export Plug-In . SVG Version: 6.00 Build 0)  -->

<svg
   xmlns:dc="http://purl.org/dc/elements/1.1/"
   xmlns:cc="http://creativecommons.org/ns#"
   xmlns:rdf="http://www.w3.org/1999/02/22-rdf-syntax-ns#"
   xmlns:svg="http://www.w3.org/2000/svg"
   xmlns="http://www.w3.org/2000/svg"
   xmlns:sodipodi="http://sodipodi.sourceforge.net/DTD/sodipodi-0.dtd"
   xmlns:inkscape="http://www.inkscape.org/namespaces/inkscape"
   version="1.1"
   id="Layer_1"
   x="0px"
   y="0px"
   width="64px"
   height="64px"
   viewBox="0 0 64 64"
   enable-background="new 0 0 64 64"
   xml:space="preserve"
   inkscape:version="0.48.5 r10040"
   sodipodi:docname="1F614.svg"
   inkscape:export-filename="D:\TESTINGEMOJI\SVGTEST\1F614.png"
   inkscape:export-xdpi="90"
   inkscape:export-ydpi="90"><metadata
   id="metadata4664"><rdf:RDF><cc:Work
       rdf:about=""><dc:format>image/svg+xml</dc:format><dc:type
         rdf:resource="http://purl.org/dc/dcmitype/StillImage" /><dc:title></dc:title></cc:Work></rdf:RDF></metadata><defs
   id="defs4662" /><sodipodi:namedview
   pagecolor="#ffffff"
   bordercolor="#666666"
   borderopacity="1"
   objecttolerance="10"
   gridtolerance="10"
   guidetolerance="10"
   inkscape:pageopacity="0"
   inkscape:pageshadow="2"
   inkscape:window-width="640"
   inkscape:window-height="480"
   id="namedview4660"
   showgrid="false"
   inkscape:zoom="3.6875"
   inkscape:cx="32"
   inkscape:cy="32"
   inkscape:window-x="775"
   inkscape:window-y="275"
   inkscape:window-maximized="0"
   inkscape:current-layer="Layer_1" />
<g
   id="g4610">
	<g
   id="g4612">
		<g
   id="g4614">
			<path
   fill="#FBB041"
   d="M64.129,31.839c0,17.664-14.315,31.981-31.979,31.981C14.485,63.82,0.17,49.503,0.17,31.839     c0-17.663,14.315-31.979,31.979-31.979C49.813-0.141,64.129,14.176,64.129,31.839z"
   id="path4616" />
		</g>
	</g>
	<g
   opacity="0.9866"
   id="g4618">
		<g
   id="g4620">
			<g
   id="g4622">
				<path
   fill="#E79D3C"
   d="M15.389,41.086C9.721,28.927,9.468,15.841,14.591,5.022C5.909,10.738,0.17,20.562,0.17,31.736      c0,17.665,14.315,31.979,31.979,31.979c0.316,0,0.622-0.039,0.936-0.047C25.754,57.498,19.576,50.072,15.389,41.086z"
   id="path4624" />
			</g>
		</g>
	</g>
	<g
   id="g4626">
		<g
   id="g4628">
			<path
   fill="#633D19"
   d="M21.733,19.278c-3.918,4.179-8.319,7.386-13.604,9.626c-1.205,0.512-0.273,2.307,0.92,1.801     c5.439-2.305,10.001-5.621,14.035-9.922C23.971,19.838,22.624,18.33,21.733,19.278z"
   id="path4630" />
		</g>
		<g
   id="g4632">
			<path
   fill="#633D19"
   d="M8.631,31.554L8.631,31.554c-0.845,0-1.612-0.648-1.786-1.507c-0.162-0.796,0.226-1.519,0.988-1.841     c5.013-2.123,9.377-5.214,13.347-9.446c0.827-0.881,2.314-0.531,2.796,0.581c0.292,0.675,0.162,1.426-0.34,1.961     c-4.234,4.517-8.907,7.819-14.291,10.103C9.113,31.503,8.872,31.554,8.631,31.554z M22.369,19.736     c-4.201,4.452-8.734,7.659-13.944,9.867c-0.083,0.352,0.111,0.498,0.328,0.405c5.186-2.198,9.691-5.386,13.777-9.743     c0.04-0.043,0.132-0.142,0.056-0.32C22.527,19.809,22.413,19.736,22.369,19.736z"
   id="path4634" />
		</g>
	</g>
	<g
   id="g4636">
		<g
   id="g4638">
			<path
   fill="#633D19"
   d="M41.566,19.278c3.918,4.179,8.318,7.386,13.604,9.626c1.205,0.512,0.272,2.307-0.921,1.801     c-5.438-2.305-10.001-5.621-14.034-9.922C39.328,19.838,40.675,18.33,41.566,19.278z"
   id="path4640" />
		</g>
		<g
   id="g4642">
			<path
   fill="#633D19"
   d="M54.668,31.554c-0.241,0-0.481-0.051-0.715-0.15c-5.384-2.283-10.057-5.585-14.291-10.103     c-0.502-0.535-0.632-1.286-0.34-1.961c0.482-1.112,1.967-1.463,2.797-0.581c3.97,4.232,8.334,7.323,13.347,9.446     c0.763,0.322,1.149,1.045,0.987,1.841C56.279,30.906,55.514,31.554,54.668,31.554z M40.922,19.775     c-0.089,0-0.166,0.067-0.209,0.17c-0.077,0.178,0.016,0.276,0.056,0.32c4.086,4.357,8.591,7.544,13.777,9.743l0.122,0.03     c0.143,0,0.272-0.154,0.301-0.292c-5.306-2.35-9.838-5.558-13.956-9.948C40.981,19.783,40.952,19.775,40.922,19.775z"
   id="path4644" />
		</g>
	</g>
	<g
   id="g4646">
		<g
   id="g4648">
			<path
   fill="#633D19"
   d="M54.011,36.686c-0.235,0-4.527,1.395-8.86,1.395c-3.869,0-7.775-1.395-8.857-1.395     c-0.942,0-1.292,0.92-0.723,1.473c5.182,5.057,13.977,5.057,19.163,0C55.298,37.605,54.948,36.686,54.011,36.686z"
   id="path4650" />
		</g>
	</g>
	<g
   id="g4652">
		<g
   id="g4654">
			<path
   fill="#633D19"
   d="M28.008,36.686c-0.235,0-4.527,1.395-8.86,1.395c-3.869,0-7.776-1.395-8.858-1.395     c-0.942,0-1.292,0.92-0.723,1.473c5.183,5.057,13.977,5.057,19.164,0C29.295,37.605,28.946,36.686,28.008,36.686z"
   id="path4656" />
		</g>
	</g>
	<path
   fill="#633C17"
   d="M39.228,54.65c0,1.115-0.904,2.021-2.022,2.021H27.093c-1.118,0-2.022-0.906-2.022-2.021l0,0   c0-1.118,0.904-2.022,2.022-2.022h10.112C38.323,52.628,39.228,53.532,39.228,54.65L39.228,54.65z"
   id="path4658" />
</g>
</svg>
